X:446
M:C
L:1/8
K:F
c|f>gf>c d<f ~f2|f/e/f/g/ f>c d<g g2|f>gf>c d<fc<f|c<AB>G A<F F>c|
f/e//f/g/ f>cd>f f2|f/e/f/g/ a>cd>g g2|f>ad>f c>dA>f|c>AG>c A>FF||

